; generated by PrusaSlicer 2.5.0+win64 on 2023-03-11 at 06:55:39 UTC


;
;
; 

; external perimeters extrusion width = 0.45mm
; perimeters extrusion width = 0.45mm
; infill extrusion width = 0.45mm
; solid infill extrusion width = 0.45mm
; top infill extrusion width = 0.40mm
; first layer extrusion width = 0.42mm

M73 P0 R48
M73 Q0 S49
M201 X1000 Y1000 Z200 E5000 ; sets maximum accelerations, mm/sec^2
M203 X200 Y200 Z12 E120 ; sets maximum feedrates, mm / sec
M204 P1250 R1250 T1250 ; sets acceleration (P, T) and retract acceleration (R), mm/sec^2
M205 X8.00 Y8.00 Z0.40 E4.50 ; sets the jerk limits, mm/sec
M205 S0 T0 ; sets the minimum extruding and travel feed rate, mm/sec
M107
;TYPE:Custom
M862.3 P "MK3S" ; printer model check
M862.1 P0.4 ; nozzle diameter check
M115 U3.11.0 ; tell printer latest fw version
G90 ; use absolute coordinates
M83 ; extruder relative mode
M104 S215 ; set extruder temp
M140 S60 ; set bed temp
M190 S60 ; wait for bed temp
M109 S215 ; wait for extruder temp
G28 W ; home all without mesh bed level
G80 ; mesh bed leveling

G1 Z0.2 F720
G1 Y-3 F1000 ; go outside print area
G92 E0
G1 X60 E9 F1000 ; intro line
G1 X100 E12.5 F1000 ; intro line

G92 E0
M221 S95

; Don't change E values below. Excessive value can damage the printer.
M907 E430 ; set extruder motor current
G21 ; set units to millimeters
G90 ; use absolute coordinates
M83 ; use relative distances for extrusion
M900 K0.05 ; Filament gcode LA 1.5
M900 K30 ; Filament gcode LA 1.0
M107
;LAYER_CHANGE
;Z:0.2
;HEIGHT:0.2
;BEFORE_LAYER_CHANGE
G92 E0.0
;0.2


G1 E-.8 F2100
G1 Z.4 F720
;AFTER_LAYER_CHANGE
;0.2
G1 X21.06 Y53.014 F10800
G1 Z.2 F720
G1 E.8 F2100
M204 S800
;TYPE:Skirt/Brim
;WIDTH:0.42
G1 F1200
G1 X22 Y52.821 E.03008
G1 X228 Y52.821 E6.459
G1 X229.307 Y53.212 E.04278
M73 Q0 S48
G1 X230.184 Y54.258 E.04278
G1 X230.377 Y55.198 E.03008
G1 X230.377 Y75.198 E.62709
G1 X229.986 Y76.505 E.04278
G1 X228.94 Y77.381 E.04278
G1 X228 Y77.575 E.03008
G1 X22 Y77.575 E6.459
G1 X20.693 Y77.183 E.04278
M73 P1 R47
G1 X19.816 Y76.138 E.04278
G1 X19.623 Y75.198 E.03008
G1 X19.623 Y55.198 E.62709
M73 Q1 S48
G1 X20.014 Y53.891 E.04278
G1 X21.014 Y53.053 E.0409
M204 S1000
; printing object CM2k_rearPanel.stl id:0 copy 0
;WIPE_START
G1 F8640
G1 X22 Y52.821 E-.23384
G1 X24.279 Y52.821 E-.52616
;WIPE_END
G1 E-.04 F2100
G1 Z.6 F720
G1 X227.05 Y63.221 F10800
G1 Z.2 F720
G1 E.8 F2100
M204 S800
;TYPE:Perimeter
;WIDTH:0.419999
G1 F1200
G1 X227.013 Y64.709 E.04665
G1 X227.019 Y68.661 E.12391
G1 X227.047 Y69.183 E.01639
G1 X226.914 Y69.078 E.00532
G1 X226.28 Y68.739 E.02254
G1 X225.756 Y68.628 E.01679
G1 X225.249 Y68.627 E.0159
G1 X224.581 Y68.783 E.02151
G1 X223.973 Y69.114 E.02169
G1 X223.576 Y69.473 E.01679
G1 X223.396 Y69.718 E.00953
G1 X223.126 Y70.179 E.01675
G1 X222.941 Y70.842 E.02159
G1 X222.938 Y71.527 E.02147
G1 X223.117 Y72.196 E.02172
G1 X223.464 Y72.787 E.02148
G1 X223.959 Y73.271 E.02171
G1 X224.558 Y73.603 E.0215
;WIDTH:0.467501
G1 X225.074 Y73.77 E.01914
G1 X225.241 Y73.784 E.0059
;WIDTH:0.475512
G1 X225.995 Y73.76 E.02714
;WIDTH:0.524318
G1 X226.281 Y73.695 E.01173
;WIDTH:0.573123
G1 X226.567 Y73.63 E.01292
G1 X226.965 Y73.358 E.02126
G1 X226.944 Y74.134 E.03423
G1 X226.541 Y74.147 E.01778
;WIDTH:0.546631
G1 X226.19 Y74.169 E.01475
;WIDTH:0.502534
G1 X225.838 Y74.192 E.01346
;WIDTH:0.467501
G1 X225.018 Y74.187 E.02895
G1 X224.476 Y74.211 E.01914
;WIDTH:0.419999
G1 X44.811 Y74.211 E5.63326
;WIDTH:0.463232
G1 X44.572 Y74.189 E.00841
;WIDTH:0.506465
G1 X44.332 Y74.168 E.00928
;WIDTH:0.549698
G1 X44.092 Y74.146 E.01014
;WIDTH:0.59293
G1 X43.853 Y74.124 E.01101
G1 X43.378 Y74.143 E.02175
;WIDTH:0.555496
G1 X42.902 Y74.162 E.02027
;WIDTH:0.518062
G1 X41.955 Y74.173 E.03744
;WIDTH:0.523084
G1 X41.005 Y74.159 E.03795
;WIDTH:0.549017
G1 X40.046 Y74.146 E.04035
G1 X39.76 Y74.168 E.01207
;WIDTH:0.506011
G1 X39.474 Y74.189 E.01104
;WIDTH:0.463005
G1 X39.188 Y74.211 E.01002
;WIDTH:0.419999
G1 X25.903 Y74.211 E.41653
;WIDTH:0.45199
G1 X25.524 Y74.195 E.01293
;WIDTH:0.48398
G1 X25.144 Y74.179 E.01394
G1 X24.391 Y74.197 E.0276
;WIDTH:0.485351
G1 X23.995 Y74.178 E.01458
;WIDTH:0.522748
G1 X23.599 Y74.159 E.01582
;WIDTH:0.553191
G1 X23.33 Y74.144 E.01144
;WIDTH:0.583634
G1 X23.061 Y74.129 E.01212
G1 X23.047 Y73.429 E.03147
G1 X23.444 Y73.614 E.0197
G1 X23.663 Y73.676 E.01025
;WIDTH:0.534599
G1 X23.883 Y73.737 E.00932
;WIDTH:0.485564
G1 X24.578 Y73.794 E.02566
;WIDTH:0.48398
G1 X25.114 Y73.74 E.01978
G1 X25.262 Y73.684 E.00577
;WIDTH:0.454765
G1 X25.881 Y73.382 E.0236
;WIDTH:0.419999
G1 X26.406 Y72.942 E.02147
G1 X26.801 Y72.373 E.02172
G1 X27.028 Y71.727 E.02148
G1 X27.078 Y71.037 E.0217
G1 X26.945 Y70.364 E.0215
G1 X26.717 Y69.872 E.01699
G1 X26.57 Y69.666 E.00795
G1 X26.178 Y69.233 E.01832
G1 X25.732 Y68.927 E.01695
G1 X25.546 Y68.841 E.00642
G1 X24.945 Y68.652 E.01975
G1 X24.301 Y68.624 E.0202
G1 X23.728 Y68.737 E.01832
G1 X23.126 Y69.049 E.02126
G1 X22.947 Y69.202 E.00739
G1 X22.987 Y67.647 E.04877
G1 X22.981 Y63.726 E.12293
G1 X22.949 Y63.206 E.01635
G1 X23.113 Y63.346 E.00675
G1 X23.361 Y63.485 E.00892
G1 X23.887 Y63.705 E.01788
G1 X24.576 Y63.78 E.02171
G1 X25.255 Y63.668 E.02158
G1 X25.881 Y63.382 E.02158
G1 X26.301 Y63.05 E.01679
G1 X26.494 Y62.823 E.00934
G1 X26.801 Y62.373 E.01707
G1 X27.028 Y61.727 E.02148
G1 X27.078 Y61.037 E.0217
G1 X26.945 Y60.364 E.0215
G1 X26.636 Y59.745 E.0217
G1 X26.176 Y59.232 E.0216
G1 X25.597 Y58.859 E.02159
G1 X24.945 Y58.652 E.02145
G1 X24.301 Y58.624 E.0202
G1 X23.728 Y58.737 E.01832
G1 X23.239 Y58.984 E.01719
G1 X22.943 Y59.205 E.01157
G1 X22.976 Y58.831 E.01178
G1 X22.985 Y56.185 E.08296
G1 X39.188 Y56.185 E.50804
;WIDTH:0.463232
G1 X39.428 Y56.207 E.00841
;WIDTH:0.506465
G1 X39.668 Y56.228 E.00928
;WIDTH:0.549698
G1 X39.907 Y56.25 E.01014
;WIDTH:0.592931
G1 X40.147 Y56.271 E.01101
G1 X40.622 Y56.253 E.02175
;WIDTH:0.555497
G1 X41.097 Y56.234 E.02027
;WIDTH:0.518062
G1 X42.045 Y56.222 E.03744
;WIDTH:0.523085
G1 X42.995 Y56.236 E.03795
;WIDTH:0.549016
G1 X43.954 Y56.249 E.04035
G1 X44.24 Y56.228 E.01207
;WIDTH:0.506011
G1 X44.526 Y56.206 E.01104
;WIDTH:0.463005
G1 X44.811 Y56.185 E.01002
;WIDTH:0.419999
G1 X227.013 Y56.185 E5.71279
G1 X227.022 Y58.464 E.07145
G1 X227.057 Y59.206 E.02329
G1 X226.998 Y59.145 E.00263
G1 X226.444 Y58.802 E.02045
G1 X225.942 Y58.654 E.01641
G1 X225.253 Y58.626 E.02163
G1 X224.586 Y58.781 E.02146
G1 X224.017 Y59.084 E.02021
G1 X223.479 Y59.588 E.02311
G1 X223.126 Y60.179 E.02157
G1 X222.941 Y60.85 E.02184
G1 X222.946 Y61.582 E.02295
G1 X223.117 Y62.196 E.01999
G1 X223.486 Y62.811 E.02247
G1 X223.959 Y63.271 E.02069
G1 X224.558 Y63.603 E.0215
G1 X225.241 Y63.767 E.022
G1 X225.987 Y63.733 E.02342
G1 X226.616 Y63.513 E.02088
G1 X227 Y63.255 E.01452
M204 S1000
;WIPE_START
G1 F8640
G1 X227.013 Y64.709 E-.33573
G1 X227.016 Y66.546 E-.42427
;WIPE_END
G1 E-.04 F2100
G1 Z.6 F720
G1 X227.542 Y61.435 F10800
G1 Z.2 F720
G1 E.8 F2100
M204 S800
;TYPE:External perimeter
;WIDTH:0.509344
G1 F1200
G1 X227.566 Y61.831 E.01538
;WIDTH:0.464672
G1 X227.59 Y62.226 E.01391
;WIDTH:0.419999
G1 X227.427 Y63.231 E.0319
G1 X227.39 Y64.708 E.04634
G1 X227.395 Y68.478 E.11819
G1 X227.415 Y68.98 E.01576
G1 X227.59 Y70.131 E.03649
G1 X227.59 Y70.279 E.00464
;WIDTH:0.458804
G1 X227.571 Y70.46 E.0063
;WIDTH:0.497608
G1 X227.551 Y70.641 E.00688
;WIDTH:0.536412
G1 X227.532 Y70.822 E.00747
G1 X227.461 Y70.663 E.00714
;WIDTH:0.497608
G1 X227.391 Y70.504 E.00658
;WIDTH:0.458804
G1 X227.32 Y70.344 E.00602
;WIDTH:0.419999
G1 X226.973 Y69.674 E.02367
G1 X226.723 Y69.403 E.01156
G1 X226.202 Y69.108 E.01879
G1 X225.678 Y68.997 E.01679
G1 X225.324 Y68.996 E.01108
G1 X224.752 Y69.12 E.01836
G1 X224.226 Y69.393 E.01857
G1 X223.797 Y69.791 E.01836
G1 X223.486 Y70.291 E.01845
G1 X223.318 Y70.855 E.01846
G1 X223.305 Y71.44 E.01834
G1 X223.448 Y72.015 E.01858
G1 X223.735 Y72.525 E.01836
G1 X224.151 Y72.947 E.01857
G1 X224.658 Y73.24 E.01837
G1 X225.234 Y73.39 E.01866
G1 X225.878 Y73.372 E.02021
G1 X226.397 Y73.206 E.01707
G1 X226.833 Y72.895 E.01678
G1 X227.077 Y72.572 E.0127
G1 X227.371 Y71.932 E.02209
;WIDTH:0.464672
G1 X227.457 Y71.683 E.00921
;WIDTH:0.509344
G1 X227.542 Y71.435 E.01019
G1 X227.566 Y71.707 E.0106
;WIDTH:0.464672
G1 X227.59 Y71.979 E.00959
;WIDTH:0.419999
G1 X227.556 Y72.519 E.01695
G1 X227.455 Y73.016 E.01589
G1 X227.405 Y73.524 E.01603
G1 X227.393 Y74.588 E.03334
G1 X22.607 Y74.588 E6.42088
G1 X22.593 Y73.498 E.03417
M73 P2 R47
M73 Q2 S48
G1 X22.471 Y72.695 E.02548
;WIDTH:0.424047
G1 X22.412 Y72.055 E.02036
;WIDTH:0.467178
G1 X22.434 Y71.925 E.00466
;WIDTH:0.510309
G1 X22.455 Y71.795 E.00513
;WIDTH:0.55344
G1 X22.477 Y71.664 E.00561
G1 X22.544 Y71.773 E.00543
;WIDTH:0.510309
G1 X22.611 Y71.882 E.00497
;WIDTH:0.467178
G1 X22.678 Y71.991 E.00451
;WIDTH:0.424047
G1 X22.923 Y72.567 E.01984
;WIDTH:0.419999
G1 X23.124 Y72.852 E.01095
G1 X23.4 Y73.086 E.01133
G1 X23.94 Y73.332 E.01859
G1 X24.525 Y73.407 E.01851
G1 X25.108 Y73.321 E.01846
G1 X25.647 Y73.086 E.01845
G1 X26.102 Y72.718 E.01835
G1 X26.449 Y72.237 E.01858
G1 X26.653 Y71.689 E.01836
G1 X26.707 Y71.099 E.01856
G1 X26.603 Y70.522 E.01838
G1 X26.348 Y69.988 E.01855
G1 X25.963 Y69.543 E.01847
G1 X25.422 Y69.197 E.02011
G1 X24.917 Y69.028 E.01671
G1 X24.374 Y68.994 E.01704
G1 X23.801 Y69.107 E.01832
G1 X23.313 Y69.376 E.01746
G1 X23.034 Y69.662 E.01254
G1 X22.754 Y70.203 E.01911
;WIDTH:0.46141
G1 X22.689 Y70.306 E.00423
;WIDTH:0.50282
G1 X22.624 Y70.408 E.00464
;WIDTH:0.54423
G1 X22.558 Y70.51 E.00506
;WIDTH:0.58564
G1 X22.493 Y70.613 E.00548
G1 X22.472 Y70.492 E.00551
;WIDTH:0.54423
G1 X22.451 Y70.372 E.00509
;WIDTH:0.50282
G1 X22.431 Y70.251 E.00467
;WIDTH:0.46141
G1 X22.41 Y70.131 E.00425
;WIDTH:0.419999
G1 X22.576 Y69.125 E.03198
G1 X22.61 Y67.647 E.04632
G1 X22.604 Y64.128 E.11035
G1 X22.587 Y63.444 E.02145
G1 X22.41 Y62.226 E.0386
;WIDTH:0.46448
G1 X22.432 Y62.039 E.00661
;WIDTH:0.50896
G1 X22.454 Y61.851 E.0073
;WIDTH:0.55344
G1 X22.477 Y61.664 E.008
G1 X22.502 Y61.715 E.00241
;WIDTH:0.533895
G1 X22.584 Y61.863 E.0069
;WIDTH:0.49593
G1 X22.667 Y62.01 E.00636
;WIDTH:0.457965
G1 X22.749 Y62.157 E.00583
;WIDTH:0.419999
G1 X22.922 Y62.568 E.01396
G1 X23.152 Y62.883 E.01222
G1 X23.478 Y63.123 E.01269
G1 X23.94 Y63.332 E.0159
G1 X24.525 Y63.407 E.01851
G1 X25.108 Y63.321 E.01846
G1 X25.647 Y63.086 E.01845
G1 X26.102 Y62.718 E.01835
G1 X26.449 Y62.237 E.01858
G1 X26.653 Y61.689 E.01836
G1 X26.707 Y61.099 E.01856
G1 X26.603 Y60.522 E.01838
G1 X26.348 Y59.988 E.01855
G1 X25.963 Y59.543 E.01847
G1 X25.474 Y59.215 E.01846
G1 X24.917 Y59.028 E.01841
G1 X24.374 Y58.994 E.01704
G1 X23.801 Y59.107 E.01832
G1 X23.371 Y59.343 E.01537
G1 X23.099 Y59.588 E.01148
G1 X22.863 Y59.956 E.01371
;WIDTH:0.46141
G1 X22.771 Y60.12 E.00656
;WIDTH:0.50282
G1 X22.678 Y60.284 E.00721
;WIDTH:0.54423
G1 X22.585 Y60.448 E.00786
;WIDTH:0.58564
G1 X22.493 Y60.613 E.0085
G1 X22.472 Y60.513 E.00459
;WIDTH:0.543662
G1 X22.451 Y60.414 E.00423
;WIDTH:0.501684
G1 X22.43 Y60.314 E.00388
;WIDTH:0.459706
G1 X22.454 Y59.838 E.01651
;WIDTH:0.419999
G1 X22.553 Y59.338 E.01598
G1 X22.599 Y58.83 E.01601
G1 X22.609 Y55.808 E.09474
G1 X227.39 Y55.808 E6.42076
G1 X227.399 Y58.461 E.08319
M73 Q2 S47
G1 X227.424 Y59.088 E.01967
G1 X227.533 Y59.774 E.02179
G1 X227.59 Y60.314 E.01703
;WIDTH:0.457647
G1 X227.571 Y60.488 E.00601
;WIDTH:0.495295
G1 X227.553 Y60.661 E.00656
;WIDTH:0.532942
G1 X227.534 Y60.834 E.0071
G1 X227.463 Y60.68 E.00691
;WIDTH:0.495295
G1 X227.393 Y60.526 E.00638
;WIDTH:0.457647
G1 X227.322 Y60.371 E.00585
;WIDTH:0.419999
G1 X226.966 Y59.662 E.02489
G1 X226.727 Y59.407 E.01096
G1 X226.256 Y59.129 E.01714
G1 X225.916 Y59.03 E.01112
G1 X225.328 Y58.996 E.01847
G1 X224.753 Y59.119 E.01842
G1 X224.267 Y59.367 E.01713
G1 X223.797 Y59.791 E.01983
G1 X223.486 Y60.291 E.01846
G1 X223.318 Y60.858 E.01854
G1 X223.312 Y61.491 E.01987
G1 X223.448 Y62.015 E.01696
G1 X223.758 Y62.549 E.01935
G1 X224.151 Y62.947 E.01755
G1 X224.658 Y63.24 E.01837
G1 X225.234 Y63.39 E.01866
G1 X225.878 Y63.372 E.02021
G1 X226.397 Y63.206 E.01707
G1 X226.817 Y62.906 E.01617
G1 X227.077 Y62.572 E.01329
G1 X227.371 Y61.932 E.02209
;WIDTH:0.464672
G1 X227.457 Y61.683 E.00921
;WIDTH:0.509344
G1 X227.523 Y61.492 E.00786
M204 S1000
;WIPE_START
G1 F8640
G1 X227.566 Y61.831 E-.07893
G1 X227.59 Y62.226 E-.09156
G1 X227.427 Y63.231 E-.23493
G1 X227.39 Y64.708 E-.34125
G1 X227.39 Y64.766 E-.01333
;WIPE_END
G1 E-.04 F2100
G1 Z.6 F720
G1 X227.532 Y70.822 F10800
G1 Z.2 F720
G1 E.8 F2100
M204 S800
;WIDTH:0.536412
G1 F1200
G1 X227.546 Y71.372 E.0226
;WIDTH:0.512648
G1 X227.544 Y71.421 E.00189
M204 S1000
;WIPE_START
G1 F8640
G1 X227.546 Y71.372 E-.01118
G1 X227.532 Y70.822 E-.12716
;WIPE_END
G1 E-.66166 F2100
G1 Z.6 F720
G1 X227.534 Y60.834 F10800
G1 Z.2 F720
G1 E.8 F2100
M204 S800
;WIDTH:0.532942
G1 F1200
G1 X227.546 Y61.372 E.02193
;WIDTH:0.512648
G1 X227.544 Y61.421 E.00189
M204 S1000
;WIPE_START
G1 F8640
G1 X227.546 Y61.372 E-.01118
G1 X227.534 Y60.834 E-.12429
;WIPE_END
G1 E-.66454 F2100
G1 Z.6 F720
G1 X207.08 Y65.999 F10800
G1 Z.2 F720
G1 E.8 F2100
M204 S800
;TYPE:Perimeter
;WIDTH:0.419999
G1 F1200
G1 X207.023 Y65.498 E.0158
G1 X207.019 Y64.958 E.01693
G1 X207.074 Y64.421 E.01693
G1 X207.187 Y63.893 E.01693
G1 X207.356 Y63.381 E.01693
G1 X207.757 Y62.591 E.02777
G1 X208.171 Y62.005 E.02248
M73 P2 R46
G1 X208.549 Y61.599 E.0174
G1 X208.958 Y61.247 E.01693
G1 X209.403 Y60.941 E.01693
G1 X209.879 Y60.685 E.01693
G1 X210.379 Y60.482 E.01693
G1 X210.898 Y60.334 E.01693
G1 X211.431 Y60.244 E.01693
G1 X211.97 Y60.211 E.01693
G1 X212.509 Y60.237 E.01693
G1 X213.042 Y60.321 E.01693
G1 X213.563 Y60.463 E.01693
G1 X214.066 Y60.659 E.01693
G1 X214.545 Y60.909 E.01693
G1 X214.994 Y61.21 E.01693
G1 X215.407 Y61.557 E.01693
G1 X215.781 Y61.946 E.01693
G1 X216.104 Y62.365 E.01658
G1 X216.392 Y62.835 E.01728
G1 X216.656 Y63.418 E.02006
G1 X216.813 Y63.893 E.01571
G1 X216.92 Y64.383 E.01571
G1 X216.978 Y64.897 E.01624
G1 X216.981 Y65.405 E.01591
G1 X216.926 Y65.974 E.01795
G1 X216.813 Y66.502 E.01693
G1 X216.644 Y67.015 E.01693
G1 X216.243 Y67.805 E.02777
G1 X215.83 Y68.391 E.02248
G1 X215.452 Y68.797 E.0174
G1 X215.042 Y69.149 E.01693
G1 X214.597 Y69.455 E.01693
G1 X214.122 Y69.711 E.01693
G1 X213.621 Y69.914 E.01693
G1 X213.102 Y70.061 E.01693
G1 X212.57 Y70.152 E.01693
G1 X212.031 Y70.184 E.01693
G1 X211.491 Y70.158 E.01693
G1 X210.958 Y70.074 E.01693
G1 X210.114 Y69.807 E.02777
G1 X209.469 Y69.493 E.02248
G1 X209.007 Y69.186 E.0174
G1 X208.593 Y68.839 E.01693
G1 X208.219 Y68.449 E.01693
G1 X207.89 Y68.022 E.01693
G1 X207.461 Y67.247 E.02777
G1 X207.209 Y66.576 E.02248
G1 X207.09 Y66.058 E.01664
M204 S1000
G1 X207.447 Y65.902 F10800
M204 S800
;TYPE:External perimeter
G1 F1200
G1 X207.396 Y65.437 E.01466
G1 X207.397 Y64.938 E.01565
G1 X207.453 Y64.442 E.01565
G1 X207.561 Y63.955 E.01565
G1 X207.725 Y63.475 E.01591
G1 X208.092 Y62.764 E.02509
G1 X208.477 Y62.225 E.02076
G1 X208.822 Y61.858 E.01581
G1 X209.218 Y61.522 E.01629
G1 X209.632 Y61.242 E.01565
G1 X210.074 Y61.01 E.01565
G1 X210.538 Y60.826 E.01565
G1 X211.019 Y60.693 E.01565
G1 X211.512 Y60.614 E.01565
G1 X212.01 Y60.588 E.01565
G1 X212.509 Y60.616 E.01565
G1 X213.001 Y60.698 E.01565
G1 X213.482 Y60.832 E.01565
G1 X213.945 Y61.018 E.01565
G1 X214.386 Y61.253 E.01565
G1 X214.798 Y61.534 E.01565
G1 X215.178 Y61.858 E.01565
G1 X215.52 Y62.221 E.01565
G1 X215.946 Y62.826 E.02319
G1 X216.299 Y63.538 E.02491
G1 X216.489 Y64.173 E.02078
G1 X216.58 Y64.725 E.01756
G1 X216.604 Y65.405 E.02131
G1 X216.551 Y65.934 E.01667
G1 X216.442 Y66.435 E.01608
G1 X216.275 Y66.921 E.01612
G1 X215.908 Y67.632 E.02508
G1 X215.523 Y68.17 E.02076
G1 X215.178 Y68.538 E.01581
G1 X214.782 Y68.874 E.01629
G1 X214.368 Y69.153 E.01565
G1 X213.927 Y69.386 E.01565
G1 X213.463 Y69.57 E.01565
G1 X212.981 Y69.702 E.01565
G1 X212.488 Y69.782 E.01565
G1 X211.99 Y69.808 E.01565
G1 X211.492 Y69.78 E.01565
G1 X210.991 Y69.696 E.01591
G1 X210.23 Y69.448 E.02509
G1 X209.637 Y69.156 E.02076
G1 X209.218 Y68.874 E.01581
G1 X208.822 Y68.538 E.01629
G1 X208.48 Y68.175 E.01565
G1 X208.175 Y67.769 E.01591
G1 X207.792 Y67.067 E.02509
