; generated by PrusaSlicer 2.5.0+win64 on 2023-05-15 at 19:03:56 UTC


;
;
; 

; external perimeters extrusion width = 0.45mm
; perimeters extrusion width = 0.45mm
; infill extrusion width = 0.45mm
; solid infill extrusion width = 0.45mm
; top infill extrusion width = 0.40mm
; first layer extrusion width = 0.42mm

M73 P0 R327
M73 Q0 S330
M201 X1000 Y1000 Z200 E5000 ; sets maximum accelerations, mm/sec^2
M203 X200 Y200 Z12 E120 ; sets maximum feedrates, mm / sec
M204 P1250 R1250 T1250 ; sets acceleration (P, T) and retract acceleration (R), mm/sec^2
M205 X8.00 Y8.00 Z0.40 E4.50 ; sets the jerk limits, mm/sec
M205 S0 T0 ; sets the minimum extruding and travel feed rate, mm/sec
M107
;TYPE:Custom
M862.3 P "MK3S" ; printer model check
M862.1 P0.4 ; nozzle diameter check
M115 U3.11.0 ; tell printer latest fw version
G90 ; use absolute coordinates
M83 ; extruder relative mode
M104 S215 ; set extruder temp
M140 S60 ; set bed temp
M190 S60 ; wait for bed temp
M109 S215 ; wait for extruder temp
G28 W ; home all without mesh bed level
G80 ; mesh bed leveling

G1 Z0.2 F720
G1 Y-3 F1000 ; go outside print area
G92 E0
G1 X60 E9 F1000 ; intro line
G1 X100 E12.5 F1000 ; intro line

G92 E0
M221 S95

; Don't change E values below. Excessive value can damage the printer.
M907 E430 ; set extruder motor current
G21 ; set units to millimeters
G90 ; use absolute coordinates
M83 ; use relative distances for extrusion
M900 K0.05 ; Filament gcode LA 1.5
M900 K30 ; Filament gcode LA 1.0
M107
;LAYER_CHANGE
;Z:0.2
;HEIGHT:0.2
;BEFORE_LAYER_CHANGE
G92 E0.0
;0.2


G1 E-.8 F2100
G1 Z.4 F720
;AFTER_LAYER_CHANGE
;0.2
G1 X18.819 Y41.394 F10800
G1 Z.2 F720
G1 E.8 F2100
M204 S800
;TYPE:Skirt/Brim
;WIDTH:0.42
G1 F1200
G1 X20.5 Y40.698 E.05704
G1 X229.5 Y40.698 E6.55306
G1 X231.181 Y41.394 E.05704
M73 P0 R326
G1 X231.606 Y41.819 E.01885
G1 X232.302 Y43.5 E.05704
G1 X232.302 Y166.5 E3.85659
G1 X231.606 Y168.181 E.05704
G1 X231.181 Y168.606 E.01885
G1 X229.5 Y169.302 E.05704
G1 X20.5 Y169.302 E6.55306
G1 X18.819 Y168.606 E.05704
G1 X18.394 Y168.181 E.01885
G1 X17.698 Y166.5 E.05704
G1 X17.698 Y43.5 E3.85659
G1 X18.394 Y41.819 E.05704
M73 Q0 S329
G1 X18.777 Y41.436 E.01696
M204 S1000
; printing object CM2k_floor_230515.stl id:0 copy 0
;WIPE_START
G1 F8640
G1 X20.5 Y40.698 E-.43292
G1 X21.916 Y40.698 E-.32708
;WIPE_END
G1 E-.04 F2100
G1 Z.6 F720
G1 X21.187 Y44.187 F10800
G1 Z.2 F720
G1 E.8 F2100
M204 S800
;TYPE:Perimeter
;WIDTH:0.419999
G1 F1200
G1 X228.813 Y44.187 E6.50996
G1 X228.813 Y165.813 E3.81349
G1 X21.187 Y165.813 E6.50996
G1 X21.187 Y44.247 E3.81161
M204 S1000
G1 X20.81 Y43.81 F10800
M204 S800
;TYPE:External perimeter
M73 P0 R325
G1 F1200
G1 X229.19 Y43.81 E6.53361
G1 X229.19 Y166.19 E3.83714
G1 X20.81 Y166.19 E6.53361
G1 X20.81 Y43.87 E3.83526
M204 S1000
M73 Q0 S328
G1 X21.204 Y43.88 F10800
;WIPE_START
G1 F8640
G1 X24.101 Y43.869 E-.76
;WIPE_END
G1 E-.04 F2100
G1 Z.6 F720
G1 X223.749 Y50.888 F10800
G1 Z.2 F720
G1 E.8 F2100
M204 S800
;TYPE:Perimeter
G1 F1200
G1 X223.835 Y50.797 E.00391
G1 X224.304 Y50.44 E.0185
G1 X224.803 Y50.219 E.01711
G1 X225.31 Y50.123 E.01617
G1 X225.826 Y50.137 E.01617
G1 X226.326 Y50.262 E.01617
G1 X226.788 Y50.492 E.01617
G1 X227.189 Y50.816 E.01615
G1 X227.622 Y51.417 E.02325
G1 X227.815 Y51.928 E.01711
G1 X227.888 Y52.5 E.01808
G1 X227.816 Y53.071 E.01804
G1 X227.63 Y53.563 E.0165
G1 X227.293 Y54.067 E.01901
G1 X226.904 Y54.428 E.01663
G1 X226.228 Y54.767 E.0237
G1 X225.69 Y54.877 E.01722
G1 X225.175 Y54.863 E.01615
G1 X224.466 Y54.646 E.02325
G1 X224.003 Y54.357 E.01711
G1 X223.639 Y53.991 E.01617
G1 X223.362 Y53.556 E.01617
G1 X223.185 Y53.072 E.01617
G1 X223.117 Y52.567 E.01598
G1 X223.159 Y52.047 E.01635
G1 X223.326 Y51.516 E.01747
G1 X223.708 Y50.932 E.02188
M204 S1000
G1 X224.041 Y51.126 F10800
M204 S800
;TYPE:External perimeter
G1 F1200
G1 X224.533 Y50.74 E.01959
G1 X224.982 Y50.558 E.01521
G1 X225.412 Y50.492 E.01362
G1 X225.845 Y50.52 E.01362
G1 X226.263 Y50.641 E.01362
G1 X226.645 Y50.848 E.01362
G1 X226.978 Y51.141 E.01392
G1 X227.31 Y51.629 E.0185
G1 X227.467 Y52.088 E.01521
G1 X227.511 Y52.5 E.01299
G1 X227.458 Y52.951 E.01425
G1 X227.317 Y53.354 E.01337
G1 X226.98 Y53.858 E.01901
G1 X226.617 Y54.168 E.01497
G1 X226.068 Y54.426 E.01901
G1 X225.589 Y54.507 E.01524
G1 X225.146 Y54.476 E.01392
G1 X224.587 Y54.288 E.0185
G1 X224.151 Y53.983 E.01668
G1 X223.833 Y53.608 E.01542
G1 X223.665 Y53.316 E.01056
G1 X223.533 Y52.912 E.01332
G1 X223.491 Y52.48 E.01362
G1 X223.542 Y52.049 E.01361
G1 X223.684 Y51.646 E.01337
G1 X224.002 Y51.17 E.01795
M204 S1000
G1 X223.931 Y50.741 F10800
;WIPE_START
G1 F8640
G1 X224.533 Y50.74 E-.15774
G1 X224.982 Y50.558 E-.11199
G1 X225.412 Y50.492 E-.10033
G1 X225.845 Y50.52 E-.10033
G1 X226.263 Y50.641 E-.10033
G1 X226.645 Y50.848 E-.10033
G1 X226.934 Y51.102 E-.08895
;WIPE_END
G1 E-.04 F2100
G1 Z.6 F720
G1 X215.827 Y53.223 F10800
G1 Z.2 F720
G1 E.8 F2100
M204 S800
;TYPE:Perimeter
G1 F1200
G1 X215.224 Y53.371 E.01948
G1 X214.675 Y53.363 E.01719
G1 X213.966 Y53.146 E.02325
G1 X213.503 Y52.857 E.01711
G1 X213.139 Y52.491 E.01617
G1 X212.862 Y52.056 E.01617
G1 X212.685 Y51.572 E.01617
G1 X212.616 Y51.061 E.01617
G1 X212.659 Y50.547 E.01617
G1 X212.811 Y50.054 E.01617
G1 X213.065 Y49.606 E.01615
G1 X213.589 Y49.081 E.02325
G1 X214.06 Y48.808 E.01709
G1 X214.78 Y48.628 E.02325
G1 X215.326 Y48.637 E.01711
G1 X215.826 Y48.762 E.01617
G1 X216.288 Y48.992 E.01617
G1 X216.689 Y49.316 E.01615
G1 X217.122 Y49.917 E.02325
G1 X217.315 Y50.428 E.01711
G1 X217.388 Y50.998 E.01801
G1 X217.333 Y51.51 E.01614
G1 X217.174 Y51.985 E.01572
G1 X216.793 Y52.568 E.02182
G1 X216.389 Y52.939 E.01721
G1 X215.885 Y53.209 E.01791
M204 S1000
G1 X215.705 Y52.875 F10800
M204 S800
;TYPE:External perimeter
G1 F1200
G1 X215.14 Y53.003 E.01814
G1 X214.646 Y52.976 E.01553
G1 X214.087 Y52.788 E.0185
G1 X213.684 Y52.518 E.01521
G1 X213.388 Y52.2 E.01362
G1 X213.168 Y51.825 E.01362
G1 X213.033 Y51.412 E.01362
G1 X212.991 Y50.98 E.01362
G1 X213.042 Y50.548 E.01362
G1 X213.185 Y50.138 E.01362
G1 X213.42 Y49.761 E.01392
G1 X213.848 Y49.355 E.0185
G1 X214.285 Y49.124 E.0155
G1 X214.861 Y48.997 E.0185
G1 X215.345 Y49.02 E.01521
G1 X215.763 Y49.141 E.01362
G1 X216.145 Y49.348 E.01362
G1 X216.478 Y49.641 E.01392
G1 X216.81 Y50.129 E.0185
G1 X216.967 Y50.588 E.01521
G1 X217.011 Y50.999 E.01297
G1 X216.958 Y51.451 E.01427
G1 X216.816 Y51.855 E.01342
G1 X216.479 Y52.358 E.01898
G1 X216.069 Y52.697 E.01669
G1 X215.76 Y52.854 E.01086
M204 S1000
G1 X215.633 Y53.269 F10800
;WIPE_START
G1 F8640
G1 X215.14 Y53.003 E-.14721
G1 X214.646 Y52.976 E-.11435
G1 X214.087 Y52.788 E-.13625
G1 X213.684 Y52.518 E-.11198
G1 X213.388 Y52.2 E-.10033
G1 X213.168 Y51.825 E-.10033
G1 X213.102 Y51.621 E-.04955
;WIPE_END
G1 E-.04 F2100
G1 Z.6 F720
G1 X154.115 Y48.628 F10800
G1 Z.2 F720
G1 E.8 F2100
M204 S800
;TYPE:Perimeter
G1 F1200
G1 X154.579 Y48.686 E.01467
G1 X155.063 Y48.865 E.01617
G1 X155.497 Y49.143 E.01617
G1 X155.861 Y49.508 E.01617
G1 X156.138 Y49.943 E.01617
G1 X156.315 Y50.428 E.01617
G1 X156.384 Y50.939 E.01617
G1 X156.342 Y51.453 E.01617
G1 X156.19 Y51.945 E.01617
G1 X155.936 Y52.394 E.01615
G1 X155.412 Y52.918 E.02325
G1 X154.955 Y53.185 E.01658
G1 X154.829 Y53.234 E.00425
G1 X154.224 Y53.371 E.01945
G1 X153.675 Y53.363 E.01721
G1 X153.175 Y53.237 E.01617
G1 X152.713 Y53.008 E.01615
G1 X152.161 Y52.513 E.02325
G1 X151.87 Y52.072 E.01658
G1 X151.645 Y51.351 E.02366
G1 X151.623 Y50.803 E.01721
G1 X151.737 Y50.244 E.01789
G1 X152.049 Y49.635 E.02144
G1 X152.41 Y49.222 E.01721
G1 X152.829 Y48.922 E.01617
G1 X153.303 Y48.719 E.01617
G1 X154.055 Y48.621 E.02378
M204 S1000
G1 X154.121 Y49 F10800
M204 S800
;TYPE:External perimeter
G1 F1200
G1 X154.557 Y49.069 E.01385
G1 X154.959 Y49.234 E.01362
G1 X155.317 Y49.482 E.01362
G1 X155.612 Y49.8 E.01362
G1 X155.832 Y50.175 E.01362
G1 X155.967 Y50.588 E.01362
G1 X156.009 Y51.02 E.01362
G1 X155.958 Y51.452 E.01362
G1 X155.815 Y51.862 E.01362
G1 X155.581 Y52.239 E.01392
G1 X155.152 Y52.645 E.0185
G1 X154.735 Y52.868 E.01483
G1 X154.14 Y53.003 E.01913
G1 X153.655 Y52.979 E.01524
G1 X153.238 Y52.859 E.01362
G1 X152.849 Y52.645 E.01392
G1 X152.42 Y52.239 E.0185
G1 X152.173 Y51.83 E.01499
G1 X152.008 Y51.248 E.01897
G1 X152.005 Y50.763 E.01522
G1 X152.102 Y50.346 E.01342
G1 X152.383 Y49.81 E.01897
G1 X152.715 Y49.455 E.01524
G1 X153.077 Y49.215 E.01362
G1 X153.492 Y49.057 E.01394
G1 X154.062 Y48.995 E.01796
M204 S1000
G1 X154.334 Y48.661 F10800
;WIPE_START
G1 F8640
G1 X154.557 Y49.069 E-.11571
G1 X154.959 Y49.234 E-.10033
G1 X155.317 Y49.482 E-.10033
G1 X155.612 Y49.8 E-.10033
G1 X155.832 Y50.175 E-.10033
G1 X155.967 Y50.588 E-.10033
G1 X156.009 Y51.02 E-.10033
G1 X155.988 Y51.202 E-.04231
;WIPE_END
G1 E-.04 F2100
G1 Z.6 F720
G1 X127.113 Y161.151 F10800
G1 Z.2 F720
G1 E.8 F2100
M204 S800
;TYPE:Perimeter
G1 F1200
G1 X127.325 Y161.482 E.01232
G1 X127.522 Y162.152 E.02189
G1 X127.543 Y162.697 E.01711
G1 X127.45 Y163.185 E.01559
G1 X127.118 Y163.865 E.0237
G1 X126.756 Y164.278 E.01722
G1 X126.337 Y164.578 E.01617
G1 X125.863 Y164.781 E.01617
G1 X125.356 Y164.877 E.01617
G1 X124.84 Y164.863 E.01617
G1 X124.358 Y164.743 E.01559
G1 X123.698 Y164.375 E.0237
G1 X123.305 Y163.992 E.01721
G1 X123.028 Y163.557 E.01617
G1 X122.851 Y163.072 E.01617
G1 X122.783 Y162.58 E.01559
G1 X122.881 Y161.83 E.0237
G1 X123.091 Y161.323 E.01722
G1 X123.393 Y160.905 E.01617
G1 X123.777 Y160.561 E.01617
G1 X124.227 Y160.308 E.01617
G1 X124.946 Y160.129 E.02326
G1 X125.491 Y160.137 E.01709
G1 X125.991 Y160.263 E.01617
G1 X126.453 Y160.492 E.01615
G1 X127.005 Y160.987 E.02325
G1 X127.08 Y161.101 E.00427
M204 S1000
G1 X127.016 Y161.749 F10800
M204 S800
;TYPE:External perimeter
G1 F1200
G1 X127.159 Y162.253 E.01643
G1 X127.161 Y162.737 E.01519
G1 X127.064 Y163.152 E.01337
G1 X126.783 Y163.69 E.01901
G1 X126.451 Y164.045 E.01524
G1 X126.089 Y164.285 E.01362
G1 X125.684 Y164.442 E.01362
G1 X125.254 Y164.508 E.01362
G1 X124.821 Y164.48 E.01361
G1 X124.412 Y164.36 E.01337
G1 X123.89 Y164.051 E.01901
G1 X123.554 Y163.7 E.01524
G1 X123.334 Y163.325 E.01362
G1 X123.199 Y162.913 E.01361
G1 X123.159 Y162.488 E.01337
G1 X123.253 Y161.889 E.01901
G1 X123.455 Y161.447 E.01524
G1 X123.721 Y161.103 E.01362
G1 X124.055 Y160.826 E.01362
G1 X124.451 Y160.623 E.01394
G1 X125.03 Y160.496 E.01858
G1 X125.511 Y160.521 E.01511
G1 X125.928 Y160.641 E.01362
G1 X126.317 Y160.855 E.01392
G1 X126.746 Y161.261 E.0185
G1 X126.999 Y161.691 E.01565
M204 S1000
G1 X127.413 Y161.796 F10800
;WIPE_START
G1 F8640
G1 X127.159 Y162.253 E-.13484
G1 X127.161 Y162.737 E-.11188
G1 X127.064 Y163.152 E-.09848
G1 X126.783 Y163.69 E-.14002
G1 X126.451 Y164.045 E-.11223
G1 X126.089 Y164.285 E-.10033
G1 X125.838 Y164.382 E-.06222
;WIPE_END
G1 E-.04 F2100
G1 Z.6 F720
G1 X227.221 Y164.126 F10800
G1 Z.2 F720
G1 E.8 F2100
M204 S800
;TYPE:Perimeter
G1 F1200
G1 X226.696 Y164.56 E.02136
G1 X226.197 Y164.781 E.01711
G1 X225.69 Y164.877 E.01617
G1 X225.175 Y164.863 E.01615
G1 X224.466 Y164.646 E.02325
G1 X224.003 Y164.357 E.01711
G1 X223.639 Y163.992 E.01617
G1 X223.362 Y163.557 E.01617
G1 X223.185 Y163.072 E.01617
G1 X223.116 Y162.561 E.01617
G1 X223.159 Y162.047 E.01617
G1 X223.311 Y161.555 E.01617
G1 X223.565 Y161.106 E.01615
G1 X224.089 Y160.582 E.02325
G1 X224.561 Y160.308 E.01711
G1 X225.281 Y160.129 E.02326
G1 X225.826 Y160.137 E.01709
G1 X226.326 Y160.263 E.01617
G1 X226.788 Y160.492 E.01617
G1 X227.189 Y160.816 E.01615
G1 X227.622 Y161.418 E.02325
G1 X227.815 Y161.928 E.01712
G1 X227.884 Y162.439 E.01617
G1 X227.816 Y163.071 E.01993
G1 X227.63 Y163.563 E.0165
G1 X227.268 Y164.088 E.01999
M204 S1000
G1 X226.958 Y163.874 F10800
M204 S800
;TYPE:External perimeter
G1 F1200
G1 X226.468 Y164.26 E.01956
G1 X226.018 Y164.442 E.01521
G1 X225.589 Y164.508 E.01362
G1 X225.146 Y164.477 E.01392
G1 X224.587 Y164.288 E.0185
G1 X224.184 Y164.018 E.01521
G1 X223.888 Y163.7 E.01362
G1 X223.668 Y163.325 E.01362
G1 X223.533 Y162.912 E.01362
G1 X223.491 Y162.48 E.01362
G1 X223.542 Y162.048 E.01362
G1 X223.685 Y161.638 E.01362
G1 X223.92 Y161.261 E.01392
G1 X224.348 Y160.855 E.0185
G1 X224.785 Y160.623 E.01552
G1 X225.362 Y160.497 E.0185
G1 X225.845 Y160.521 E.01518
G1 X226.263 Y160.641 E.01362
G1 X226.645 Y160.848 E.01362
G1 X226.978 Y161.141 E.01392
G1 X227.31 Y161.629 E.0185
G1 X227.467 Y162.088 E.01521
G1 X227.511 Y162.5 E.01299
G1 X227.458 Y162.951 E.01425
G1 X227.317 Y163.354 E.01337
G1 X226.998 Y163.83 E.01798
M204 S1000
G1 X227.068 Y164.259 F10800
;WIPE_START
G1 F8640
G1 X226.468 Y164.26 E-.15756
G1 X226.018 Y164.442 E-.11199
G1 X225.589 Y164.508 E-.10033
G1 X225.146 Y164.477 E-.10248
G1 X224.587 Y164.288 E-.13624
G1 X224.184 Y164.018 E-.11199
G1 X224.068 Y163.893 E-.03941
;WIPE_END
G1 E-.04 F2100
G1 Z.6 F720
G1 X22.765 Y160.879 F10800
G1 Z.2 F720
G1 E.8 F2100
M204 S800
;TYPE:Perimeter
G1 F1200
G1 X23.111 Y160.561 E.01475
G1 X23.561 Y160.308 E.01617
G1 X24.28 Y160.129 E.02326
G1 X24.825 Y160.137 E.01709
G1 X25.362 Y160.275 E.01738
G1 X25.968 Y160.625 E.02194
G1 X26.361 Y161.009 E.01722
G1 X26.638 Y161.444 E.01617
G1 X26.815 Y161.928 E.01617
G1 X26.884 Y162.438 E.01615
G1 X26.785 Y163.173 E.02325
G1 X26.574 Y163.677 E.01711
G1 X26.273 Y164.095 E.01617
G1 X25.888 Y164.439 E.01617
G1 X25.44 Y164.692 E.01615
G1 X25.296 Y164.745 E.00478
G1 X24.72 Y164.872 E.0185
G1 X24.174 Y164.863 E.01711
G1 X23.674 Y164.738 E.01617
G1 X23.212 Y164.508 E.01617
G1 X22.811 Y164.184 E.01617
G1 X22.488 Y163.782 E.01617
G1 X22.267 Y163.337 E.01559
G1 X22.12 Y162.595 E.0237
G1 X22.158 Y162.047 E.01722
G1 X22.304 Y161.572 E.01559
G1 X22.721 Y160.92 E.02427
M204 S1000
G1 X23.056 Y161.111 F10800
M204 S800
;TYPE:External perimeter
G1 F1200
G1 X23.389 Y160.826 E.01375
G1 X23.785 Y160.623 E.01394
G1 X24.361 Y160.497 E.0185
G1 X24.845 Y160.52 E.01517
G1 X25.254 Y160.64 E.01337
G1 X25.775 Y160.949 E.01901
G1 X26.112 Y161.3 E.01524
G1 X26.332 Y161.675 E.01362
G1 X26.467 Y162.088 E.01362
G1 X26.508 Y162.53 E.01392
G1 X26.412 Y163.112 E.0185
G1 X26.211 Y163.553 E.01521
G1 X25.945 Y163.897 E.01362
G1 X25.611 Y164.175 E.01362
G1 X25.215 Y164.376 E.01392
G1 X24.639 Y164.503 E.0185
G1 X24.155 Y164.48 E.01521
G1 X23.737 Y164.359 E.01362
G1 X23.355 Y164.152 E.01362
G1 X23.027 Y163.867 E.01362
G1 X22.768 Y163.519 E.01361
G1 X22.594 Y163.13 E.01337
G1 X22.492 Y162.532 E.01901
G1 X22.542 Y162.049 E.01523
G1 X22.683 Y161.646 E.01337
G1 X23.013 Y161.153 E.01862
M204 S1000
G1 X22.936 Y160.73 F10800
;WIPE_START
G1 F8640
G1 X23.389 Y160.826 E-.11504
G1 X23.785 Y160.623 E-.10264
G1 X24.361 Y160.497 E-.13625
G1 X24.845 Y160.52 E-.11172
G1 X25.254 Y160.64 E-.09848
G1 X25.775 Y160.949 E-.14003
G1 X25.943 Y161.124 E-.05585
;WIPE_END
G1 E-.04 F2100
G1 Z.6 F720
G1 X26.874 Y52.514 F10800
G1 Z.2 F720
G1 E.8 F2100
M204 S800
;TYPE:Perimeter
G1 F1200
G1 X26.88 Y52.591 E.00242
G1 X26.778 Y53.208 E.01961
G1 X26.574 Y53.677 E.01603
G1 X26.273 Y54.095 E.01617
G1 X25.888 Y54.439 E.01617
G1 X25.439 Y54.692 E.01617
G1 X24.946 Y54.843 E.01615
G1 X24.205 Y54.863 E.02325
G1 X23.674 Y54.737 E.01711
G1 X23.212 Y54.508 E.01617
G1 X22.811 Y54.184 E.01617
G1 X22.488 Y53.781 E.01617
G1 X22.26 Y53.319 E.01617
G1 X22.12 Y52.591 E.02324
G1 X22.215 Y51.827 E.02416
G1 X22.425 Y51.323 E.01711
G1 X22.727 Y50.905 E.01617
G1 X23.111 Y50.561 E.01617
G1 X23.776 Y50.231 E.02326
G1 X24.485 Y50.124 E.0225
G1 X24.691 Y50.123 E.00644
G1 X25.197 Y50.219 E.01615
G1 X25.671 Y50.422 E.01617
G1 X26.09 Y50.722 E.01617
G1 X26.435 Y51.106 E.01617
G1 X26.689 Y51.554 E.01617
G1 X26.841 Y52.047 E.01617
G1 X26.87 Y52.454 E.01279
M204 S1000
G1 X26.503 Y52.558 F10800
M204 S800
;TYPE:External perimeter
G1 F1200
G1 X26.41 Y53.124 E.01797
G1 X26.211 Y53.553 E.01485
G1 X25.945 Y53.896 E.01362
G1 X25.611 Y54.174 E.01362
G1 X25.225 Y54.374 E.01362
G1 X24.795 Y54.486 E.01392
G1 X24.205 Y54.486 E.0185
G1 X23.737 Y54.359 E.01521
G1 X23.355 Y54.152 E.01362
G1 X23.027 Y53.867 E.01362
G1 X22.768 Y53.518 E.01362
G1 X22.587 Y53.112 E.01394
G1 X22.492 Y52.53 E.01848
G1 X22.587 Y51.888 E.02037
G1 X22.789 Y51.447 E.01521
G1 X23.055 Y51.103 E.01362
G1 X23.398 Y50.821 E.01394
G1 X23.934 Y50.573 E.0185
